public/svgs/solid/table-cells-large.svg

<svg xmlns="http://www.w3.org/2000/svg" viewBox="0 0 512 512"><!--! Font Awesome Pro 6.0.0-alpha3 by @fontawesome - https://fontawesome.com License - https://fontawesome.com/license (Commercial License) --><path d="M448 32H64C28.65 32 0 60.65 0 96v320c0 35.35 28.65 64 64 64h384c35.35 0 64-28.65 64-64V96C512 60.65 483.3 32 448 32zM64 96h160v128H64V96zM64 416V288h160v128H64zM448 416h-160V288h160V416zM448 224h-160V96h160V224z"/></svg>

<svg xmlns="http://www.w3.org/2000/svg" viewBox="0 0 512 512"><!--! Font Awesome Free 6.4.0 by @fontawesome - https://fontawesome.com License - https://fontawesome.com/license/free (Icons: CC BY 4.0, Fonts: SIL OFL 1.1, Code: MIT License) Copyright 2023 Fonticons, Inc. --><path d="M448 96V224H288V96H448zm0 192V416H288V288H448zM224 224H64V96H224V224zM64 288H224V416H64V288zM64 32C28.7 32 0 60.7 0 96V416c0 35.3 28.7 64 64 64H448c35.3 0 64-28.7 64-64V96c0-35.3-28.7-64-64-64H64z"/></svg>
